public/images/icons/logout.svg

<svg width="17" height="20" viewBox="0 0 17 20" fill="none" xmlns="http://www.w3.org/2000/svg">
<g id="Union">
<path d="M9.10714 12.5C8.77183 12.5 8.5 11.9404 8.5 11.25C8.5 10.5596 8.77183 10 9.10714 10C9.44246 10 9.71429 10.5596 9.71429 11.25C9.71429 11.9404 9.44246 12.5 9.10714 12.5Z" fill="white"/>
<path d="M11.9335 0.152845C12.0665 0.271556 12.1429 0.443822 12.1429 0.625004V1.25H12.75C13.7559 1.25 14.5714 2.08947 14.5714 3.125V18.75H16.3929C16.7282 18.75 17 19.0298 17 19.375C17 19.7202 16.7282 20 16.3929 20H0.607143C0.271827 20 0 19.7202 0 19.375C0 19.0298 0.271827 18.75 0.607143 18.75H2.42857V1.875C2.42857 1.56397 2.65074 1.30027 2.94985 1.25629L11.4499 0.00628568C11.6241 -0.0193374 11.8006 0.0341345 11.9335 0.152845ZM12.75 2.5H12.1429V18.75H13.3571V3.125C13.3571 2.77983 13.0853 2.5 12.75 2.5ZM3.64286 2.41706V18.75H10.9286V1.34563L3.64286 2.41706Z" fill="white"/>
</g>
</svg>

<svg xmlns="http://www.w3.org/2000/svg" width="17" height="20" fill="none"><g fill="#fff"><path d="M9.107 12.5c-.335 0-.607-.56-.607-1.25S8.772 10 9.107 10c.335 0 .607.56.607 1.25s-.272 1.25-.607 1.25Z"/><path d="M11.934.153c.133.119.209.29.209.472v.625h.607c1.006 0 1.821.84 1.821 1.875V18.75h1.822c.335 0 .607.28.607.625a.616.616 0 0 1-.607.625H.607A.616.616 0 0 1 0 19.375c0-.345.272-.625.607-.625H2.43V1.875a.62.62 0 0 1 .52-.619l8.5-1.25a.595.595 0 0 1 .485.147ZM12.75 2.5h-.607v16.25h1.214V3.125a.616.616 0 0 0-.607-.625Zm-9.107-.083V18.75h7.286V1.346L3.643 2.417Z"/></g></svg>
